Papirus/24x24/apps/org.gnome.DiskUtility.svg

<svg width="24" height="24" version="1.1" xmlns="http://www.w3.org/2000/svg">
 <rect x="4" y="2.5" width="15" height="20" rx="1.5" ry="1.626" style="opacity:.2"/>
 <rect x="4" y="2" width="15" height="20" rx="1.5" ry="1.626" style="fill:#e4e4e4"/>
 <path d="m5.5 3c-0.2761424 0-0.5 0.2238576-0.5 0.5s0.2238576 0.5 0.5 0.5 0.5-0.2238576 0.5-0.5-0.2238576-0.5-0.5-0.5zm2.027344 0c-0.400111 0-0.72168 0.3345-0.72168 0.75 0 0.6213207-0.484697 1.125-1.083008 1.125-0.4001095 0-0.722656 0.3345-0.722656 0.75v2.0005c0 0.4155005 0.3225455 0.75 0.722656 0.75 0.598311 0 1.083008 0.503679 1.083008 1.125-6e-4 0.276966-0.099054 0.54401-0.2773435 0.75-1.0692805 1.236118-1.52576 2.337878-1.5283205 3.9995 0 0.0223 0.0027 0.03774 0.00295 0.05957-0.0019133 0.063459-0.0028967 0.126942-0.00295 0.19043 0 3.589851 2.9101491 6.5 6.5 6.5 3.589851 0 6.5-2.910149 6.5-6.5 3.1e-5 -0.06609-9.46e-4 -0.13218-0.0029-0.198242 1.27e-4 -0.019026 0.0029-0.032369 0.0029-0.051758-0.0028-1.661779-0.458623-2.763559-1.528321-3.9995-0.178224-0.206016-0.276907-0.4730585-0.277343-0.75 0-0.621321 0.484698-1.125 1.083008-1.125 0.40011 0 0.722656-0.3344995 0.722656-0.75v-2.0005c0-0.4155-0.322546-0.75-0.722656-0.75-0.59831 0-1.083008-0.5036793-1.083008-1.125 0-0.4155-0.321569-0.75-0.72168-0.75zm9.972656 0c-0.276142 0-0.5 0.2238576-0.5 0.5s0.223858 0.5 0.5 0.5 0.5-0.2238576 0.5-0.5-0.223858-0.5-0.5-0.5zm-12 6.0005c-0.2761424 0-0.5 0.2238576-0.5 0.5s0.2238576 0.5 0.5 0.5 0.5-0.2238576 0.5-0.5-0.2238576-0.5-0.5-0.5zm12 0c-0.276142 0-0.5 0.2238576-0.5 0.5s0.223858 0.5 0.5 0.5 0.5-0.2238576 0.5-0.5-0.223858-0.5-0.5-0.5zm-12 10.9995c-0.2761424 0-0.5 0.223858-0.5 0.5s0.2238576 0.5 0.5 0.5 0.5-0.223858 0.5-0.5-0.2238576-0.5-0.5-0.5zm12 0c-0.276142 0-0.5 0.223858-0.5 0.5s0.223858 0.5 0.5 0.5 0.5-0.223858 0.5-0.5-0.223858-0.5-0.5-0.5z" style="fill:#ababab"/>
 <path d="m11.617037 9.4999998c-0.417361 0-0.821889 0.095954-1.194913 0.2258967l1.969995 1.9683655c0.404835 0.404492 0.404835 1.047555 0 1.452068l-0.742785 0.74217c-0.404836 0.404492-1.048438 0.404492-1.453275 0l-1.9699928-1.968363c-0.1300588 0.372698-0.2260662 0.776898-0.2260662 1.193919 0 1.995983 1.6194038 3.614034 3.617038 3.614034 0.417364 0 0.821892-0.09596 1.194917-0.225873l5.365722 5.372659c1.724719 1.728035 3.886566-0.50056 2.228347-2.161964l-5.398014-5.404934c0.130056-0.3727 0.226063-0.7769 0.226063-1.19392 0-1.995984-1.619403-3.6140582-3.617039-3.6140582z" style="opacity:.2"/>
 <path d="m5.5 3c-0.2761424 0-0.5 0.2238576-0.5 0.5 0 0.0928949 0.0320373 0.1754706 0.0761719 0.25 0.0870614-0.1470193 0.2405806-0.25 0.4238281-0.25s0.3367667 0.1029807 0.4238281 0.25c0.0441346-0.0745294 0.0761719-0.1571051 0.0761719-0.25 0-0.2761424-0.2238576-0.5-0.5-0.5zm2.0273438 0c-0.400111 0-0.7226563 0.3345-0.7226563 0.75 0 0.6213207-0.4837202 1.125-1.0820313 1.125-0.4001094 0-0.7226562 0.3345-0.7226562 0.75v0.5c0-0.4155 0.3225468-0.75 0.7226562-0.75 0.5983111 0 1.0820313-0.5036793 1.0820313-1.125 0-0.4155 0.3225453-0.75 0.7226563-0.75h7.9453122c0.400111 0 0.722656 0.3345 0.722656 0.75 0 0.6213207 0.483722 1.125 1.082032 1.125 0.40011 0 0.722656 0.3345 0.722656 0.75v-0.5c0-0.4155-0.322546-0.75-0.722656-0.75-0.59831 0-1.082032-0.5036793-1.082032-1.125 0-0.4155-0.322545-0.75-0.722656-0.75zm9.9726562 0c-0.276142 0-0.5 0.2238576-0.5 0.5 0 0.092895 0.03204 0.1754706 0.07617 0.25 0.087063-0.1470193 0.240583-0.25 0.42383-0.25s0.336767 0.1029807 0.423828 0.25c0.044135-0.0745294 0.076172-0.1571051 0.076172-0.25 0-0.2761424-0.223858-0.5-0.5-0.5zm-12 6c-0.2761424 0-0.5 0.2238576-0.5 0.5 0 0.0928949 0.0320373 0.1754706 0.0761719 0.25 0.0871835-0.1465137 0.2409606-0.25 0.4238281-0.25s0.3366446 0.1034863 0.4238281 0.25c0.0441346-0.0745294 0.0761719-0.1571051 0.0761719-0.25 0-0.2761424-0.2238576-0.5-0.5-0.5zm12 0c-0.276142 0-0.5 0.2238576-0.5 0.5 0 0.092895 0.03204 0.1754706 0.07617 0.25 0.087185-0.1465137 0.240963-0.25 0.42383-0.25s0.336645 0.1034863 0.423828 0.25c0.044135-0.0745294 0.076172-0.1571051 0.076172-0.25 0-0.2761424-0.223858-0.5-0.5-0.5zm-10.740234 0.7617188c-0.0420581 0.1789318-0.110136 0.3492522-0.2304687 0.4882812-1.0692805 1.236118-1.5267364 2.338378-1.5292969 4 0 0.0223 0.00366 0.03676 0.00391 0.05859-0.0019171 0.063463-0.0038567 0.127922-0.00391 0.19141 0 0.05147 0.00662 0.101154 0.00781 0.152344 0.0214078-1.603494 0.4748642-2.692419 1.5214869-3.902344 0.1782895-0.20599 0.2747906-0.473034 0.2753906-0.75 0-0.084546-0.027907-0.1590648-0.044922-0.2382812zm9.4804684 0c-0.017014 0.0792164-0.044922 0.1537356-0.044922 0.2382812 4.36e-4 0.276942 0.09717 0.543984 0.275391 0.75 1.047031 1.209752 1.499881 2.298702 1.521485 3.902344 0.00119-0.05119 0.007812-0.100869 0.007812-0.152344 3.1e-5 -0.06609 1e-6 -0.131204-2e-3 -0.197266 1.74e-4 -0.019026 2e-3 -0.033345 2e-3 -0.052734-0.0028-1.661779-0.459599-2.764059-1.529297-4-0.120288-0.139046-0.188398-0.3093555-0.230469-0.4882812zm-10.740234 10.238281c-0.2761424 0-0.5 0.223858-0.5 0.5 0 0.09289 0.032037 0.175471 0.076172 0.25 0.0870613-0.147019 0.2405805-0.25 0.423828-0.25s0.3367667 0.102981 0.4238281 0.25c0.0441346-0.074529 0.0761719-0.157105 0.0761719-0.25 0-0.276142-0.2238576-0.5-0.5-0.5zm12 0c-0.276142 0-0.5 0.223858-0.5 0.5 0 0.09289 0.03204 0.175471 0.07617 0.25 0.08706-0.147019 0.240581-0.25 0.423828-0.25s0.336767 0.102981 0.423828 0.25c0.044137-0.074529 0.076174-0.157105 0.076174-0.25 0-0.276142-0.223858-0.5-0.5-0.5z" style="opacity:.2"/>
 <path d="m11.617037 9c-0.417361 0-0.821889 0.095954-1.194913 0.2258967l1.969995 1.9683663c0.404835 0.404491 0.404835 1.047554 0 1.452068l-0.742785 0.74217c-0.404836 0.404492-1.048438 0.404492-1.453275 0l-1.9699928-1.968364c-0.1300588 0.372699-0.2260662 0.776898-0.2260662 1.193919 0 1.995984 1.6194038 3.614035 3.617038 3.614035 0.417364 0 0.821892-0.09596 1.194917-0.225874l5.365722 5.37266c1.724719 1.728035 3.886566-0.50056 2.228347-2.161965l-5.398014-5.404934c0.130056-0.372699 0.226063-0.776899 0.226063-1.19392 0-1.995983-1.619403-3.614058-3.617039-3.614058z" style="fill:#4f4f4f"/>
 <path d="M 5.5,2 C 4.669,2 4,2.7249655 4,3.6259765 v 0.5 C 4,3.2249655 4.669,2.5 5.5,2.5 h 12 c 0.831,0 1.5,0.7249655 1.5,1.6259765 v -0.5 C 19,2.7249655 18.331,2 17.5,2 Z" style="fill:#ffffff;opacity:.2"/>
</svg>

<svg xmlns="http://www.w3.org/2000/svg" width="24" height="24" version="1.1">
 <rect style="opacity:0.2" width="15" height="20" x="4" y="2.5" rx="1.5" ry="1.626"/>
 <rect style="fill:#e4e4e4" width="15" height="20" x="4" y="2" rx="1.5" ry="1.626"/>
 <path style="fill:#ababab" d="M 5.5,3 C 5.2238576,3 5,3.2238576 5,3.5 5,3.7761424 5.2238576,4 5.5,4 5.7761424,4 6,3.7761424 6,3.5 6,3.2238576 5.7761424,3 5.5,3 Z m 2.027344,0 c -0.400111,0 -0.72168,0.3345 -0.72168,0.75 0,0.6213207 -0.484697,1.125 -1.083008,1.125 C 5.3225465,4.875 5,5.2095 5,5.625 v 2.0005 c 0,0.4155005 0.3225455,0.75 0.722656,0.75 0.598311,0 1.083008,0.503679 1.083008,1.125 -6e-4,0.276966 -0.099054,0.54401 -0.2773435,0.75 C 5.45904,11.486618 5.0025605,12.588378 5,14.25 5,14.2723 5.0027,14.28774 5.00295,14.30957 5.0010367,14.373029 5.0000533,14.436512 5,14.5 5,18.089851 7.9101491,21 11.5,21 15.089851,21 18,18.089851 18,14.5 18.000031,14.43391 17.999054,14.36782 17.9971,14.301758 17.997227,14.282732 18,14.269389 18,14.25 c -0.0028,-1.661779 -0.458623,-2.763559 -1.528321,-3.9995 -0.178224,-0.206016 -0.276907,-0.4730585 -0.277343,-0.75 0,-0.621321 0.484698,-1.125 1.083008,-1.125 C 17.677454,8.3755 18,8.0410005 18,7.6255 V 5.625 c 0,-0.4155 -0.322546,-0.75 -0.722656,-0.75 -0.59831,0 -1.083008,-0.5036793 -1.083008,-1.125 0,-0.4155 -0.321569,-0.75 -0.72168,-0.75 z M 17.5,3 C 17.223858,3 17,3.2238576 17,3.5 17,3.7761424 17.223858,4 17.5,4 17.776142,4 18,3.7761424 18,3.5 18,3.2238576 17.776142,3 17.5,3 Z m -12,6.0005 c -0.2761424,0 -0.5,0.2238576 -0.5,0.5 0,0.2761424 0.2238576,0.5 0.5,0.5 0.2761424,0 0.5,-0.2238576 0.5,-0.5 0,-0.2761424 -0.2238576,-0.5 -0.5,-0.5 z m 12,0 c -0.276142,0 -0.5,0.2238576 -0.5,0.5 0,0.2761424 0.223858,0.5 0.5,0.5 0.276142,0 0.5,-0.2238576 0.5,-0.5 0,-0.2761424 -0.223858,-0.5 -0.5,-0.5 z M 5.5,20 C 5.2238576,20 5,20.223858 5,20.5 5,20.776142 5.2238576,21 5.5,21 5.7761424,21 6,20.776142 6,20.5 6,20.223858 5.7761424,20 5.5,20 Z m 12,0 C 17.223858,20 17,20.223858 17,20.5 17,20.776142 17.223858,21 17.5,21 17.776142,21 18,20.776142 18,20.5 18,20.223858 17.776142,20 17.5,20 Z"/>
 <path style="opacity:0.1" d="m 11.617037,9.4999998 c -0.417361,0 -0.821889,0.095954 -1.194913,0.2258967 l 1.969995,1.9683655 c 0.404835,0.404492 0.404835,1.047555 0,1.452068 l -0.742785,0.74217 c -0.404836,0.404492 -1.048438,0.404492 -1.453275,0 L 8.2260662,11.920137 C 8.0960074,12.292835 8,12.697035 8,13.114056 c 0,1.995983 1.6194038,3.614034 3.617038,3.614034 0.417364,0 0.821892,-0.09596 1.194917,-0.225873 l 5.365722,5.372659 c 1.724719,1.728035 3.886566,-0.50056 2.228347,-2.161964 L 15.00801,14.307978 c 0.130056,-0.3727 0.226063,-0.7769 0.226063,-1.19392 0,-1.995984 -1.619403,-3.6140582 -3.617039,-3.6140582 z"/>
 <path style="opacity:0.1" d="M 5.5,3 C 5.2238576,3 5,3.2238576 5,3.5 5,3.5928949 5.0320373,3.6754706 5.0761719,3.75 5.1632333,3.6029807 5.3167525,3.5 5.5,3.5 5.6832475,3.5 5.8367667,3.6029807 5.9238281,3.75 5.9679627,3.6754706 6,3.5928949 6,3.5 6,3.2238576 5.7761424,3 5.5,3 Z m 2.0273438,0 c -0.400111,0 -0.7226563,0.3345 -0.7226563,0.75 0,0.6213207 -0.4837202,1.125 -1.0820313,1.125 C 5.3225468,4.875 5,5.2095 5,5.625 v 0.5 c 0,-0.4155 0.3225468,-0.75 0.7226562,-0.75 0.5983111,0 1.0820313,-0.5036793 1.0820313,-1.125 0,-0.4155 0.3225453,-0.75 0.7226563,-0.75 h 7.9453122 c 0.400111,0 0.722656,0.3345 0.722656,0.75 0,0.6213207 0.483722,1.125 1.082032,1.125 C 17.677454,5.375 18,5.7095 18,6.125 v -0.5 c 0,-0.4155 -0.322546,-0.75 -0.722656,-0.75 -0.59831,0 -1.082032,-0.5036793 -1.082032,-1.125 0,-0.4155 -0.322545,-0.75 -0.722656,-0.75 z M 17.5,3 C 17.223858,3 17,3.2238576 17,3.5 c 0,0.092895 0.03204,0.1754706 0.07617,0.25 C 17.163233,3.6029807 17.316753,3.5 17.5,3.5 c 0.183247,0 0.336767,0.1029807 0.423828,0.25 C 17.967963,3.6754706 18,3.5928949 18,3.5 18,3.2238576 17.776142,3 17.5,3 Z M 5.5,9 C 5.2238576,9 5,9.2238576 5,9.5 5,9.5928949 5.0320373,9.6754706 5.0761719,9.75 5.1633554,9.6034863 5.3171325,9.5 5.5,9.5 5.6828675,9.5 5.8366446,9.6034863 5.9238281,9.75 5.9679627,9.6754706 6,9.5928949 6,9.5 6,9.2238576 5.7761424,9 5.5,9 Z m 12,0 C 17.223858,9 17,9.2238576 17,9.5 c 0,0.092895 0.03204,0.1754706 0.07617,0.25 C 17.163355,9.6034863 17.317133,9.5 17.5,9.5 c 0.182867,0 0.336645,0.1034863 0.423828,0.25 C 17.967963,9.6754706 18,9.5928949 18,9.5 18,9.2238576 17.776142,9 17.5,9 Z M 6.7597656,9.7617188 C 6.7177075,9.9406506 6.6496296,10.110971 6.5292969,10.25 5.4600164,11.486118 5.0025605,12.588378 5,14.25 c 0,0.0223 0.00366,0.03676 0.00391,0.05859 C 5.0019929,14.372053 5.0000533,14.436512 5,14.5 c 0,0.05147 0.00662,0.101154 0.00781,0.152344 C 5.0292178,13.04885 5.4826742,11.959925 6.5292969,10.75 6.7075864,10.54401 6.8040875,10.276966 6.8046875,10 c 0,-0.084546 -0.027907,-0.1590648 -0.044922,-0.2382812 z m 9.4804684,0 C 16.22322,9.8409352 16.195312,9.9154544 16.195312,10 c 4.36e-4,0.276942 0.09717,0.543984 0.275391,0.75 1.047031,1.209752 1.499881,2.298702 1.521485,3.902344 C 17.993378,14.601154 18,14.551475 18,14.5 c 3.1e-5,-0.06609 1e-6,-0.131204 -0.002,-0.197266 C 17.998174,14.283708 18,14.269389 18,14.25 17.9972,12.588221 17.540401,11.485941 16.470703,10.25 16.350415,10.110954 16.282305,9.9406445 16.240234,9.7617188 Z M 5.5,20 C 5.2238576,20 5,20.223858 5,20.5 c 0,0.09289 0.032037,0.175471 0.076172,0.25 C 5.1632333,20.602981 5.3167525,20.5 5.5,20.5 c 0.1832475,0 0.3367667,0.102981 0.4238281,0.25 C 5.9679627,20.675471 6,20.592895 6,20.5 6,20.223858 5.7761424,20 5.5,20 Z m 12,0 c -0.276142,0 -0.5,0.223858 -0.5,0.5 0,0.09289 0.03204,0.175471 0.07617,0.25 0.08706,-0.147019 0.240581,-0.25 0.423828,-0.25 0.183247,0 0.336767,0.102981 0.423828,0.25 C 17.967963,20.675471 18,20.592895 18,20.5 18,20.223858 17.776142,20 17.5,20 Z"/>
 <path style="fill:#4f4f4f" d="m 11.617037,9 c -0.417361,0 -0.821889,0.095954 -1.194913,0.2258967 l 1.969995,1.9683663 c 0.404835,0.404491 0.404835,1.047554 0,1.452068 l -0.742785,0.74217 c -0.404836,0.404492 -1.048438,0.404492 -1.453275,0 L 8.2260662,11.420137 C 8.0960074,11.792836 8,12.197035 8,12.614056 c 0,1.995984 1.6194038,3.614035 3.617038,3.614035 0.417364,0 0.821892,-0.09596 1.194917,-0.225874 l 5.365722,5.37266 c 1.724719,1.728035 3.886566,-0.50056 2.228347,-2.161965 L 15.00801,13.807978 c 0.130056,-0.372699 0.226063,-0.776899 0.226063,-1.19392 C 15.234073,10.618075 13.61467,9 11.617034,9 Z"/>
 <path style="opacity:0.2;fill:#ffffff" d="M 5.5,2 C 4.669,2 4,2.7249655 4,3.6259765 v 0.5 C 4,3.2249655 4.669,2.5 5.5,2.5 h 12 c 0.831,0 1.5,0.7249655 1.5,1.6259765 v -0.5 C 19,2.7249655 18.331,2 17.5,2 Z"/>
</svg>
